X: 6
T:Arkansas Traveller
M:4/4
L:1/8
C:Traditional
R:Reel
K:D
B,C|"D"DFED "G"B,2B,2|"D"A,2A,2D4|"A"E2E2F2F2|DFED B,2A,2|"D"DFED "G"B,2B,2|
"D"A,2 A,2D3(3ABc|dcdA "G"BdAG|1"A"FDEF "D"D2 B,C:|[2"A"FDED "D"D2fg||
|:"D"agfa "G"gfeg|"D"fede "A"edcA|"D"dcdf "A"edeg|"D"fedf "A"e2fg|!
"D"agfa"G" gfeg|"D"fedf "A"edcA|"D"dcdA "G"BdAG|1"A"FDEF "D"D2fg:|[2"A"
FDEF "D"D2|]
